src/svgs/facebook.svg

<svg fill="none" height="50" viewBox="0 0 50 50" width="50" xmlns="http://www.w3.org/2000/svg"><g fill="#ee7d00"><path d="m41.658 7.36542h-6.5742c-5.1174 0-9.2808 4.16338-9.2808 9.28078v5.5485h-5.2025c-.539 0-.9766.4371-.9766.9765v7.5135c0 .5394.4376.9765.9766.9765h5.2025v16.3857h-22.87331c-.53864 0-.97657-.438-.97657-.9766v-44.14061c0-.53864.43793-.97657.97657-.97657h1.95312c.5394 0 .97657-.43716.97657-.976558s-.43717-.976562-.97657-.976562h-1.95312c-1.61553 0-2.92969 1.31416-2.92969 2.92969v44.14061c0 1.6155 1.31416 2.9297 2.92969 2.9297h23.84991c.5394 0 .9765-.4372.9765-.9766v-18.3387c0-.5394-.4371-.9766-.9765-.9766h-5.2021v-5.5607h5.2021c.5394 0 .9765-.4371.9765-.9765v-6.5247c0-4.0405 3.2871-7.32804 7.3281-7.32804h5.5976v5.56034h-5.5976c-.9583 0-1.7678.8094-1.7678 1.7677v6.5247c0 .5394.4372.9765.9766.9765h6.2519l-.7317 5.5607h-5.5202c-.539 0-.9766.4372-.9766.9766v18.3387c0 .5394.4376.9766.9766.9766h3.0117c.5394 0 .9765-.4372.9765-.9766s-.4371-.9765-.9765-.9765h-2.0352v-16.3857h5.4001c.4902 0 .9045-.3635.9682-.8491l.9888-7.5138c.0366-.2785-.0485-.5597-.2339-.771-.1854-.2117-.4532-.3326-.7343-.3326h-6.3885v-5.3627h6.3885c.5394 0 .9766-.4372.9766-.9766v-7.51342c-.0004-.5394-.4376-.97656-.977-.97656z"/><path d="m47.0703 0h-34.375c-.5394 0-.9765.437164-.9765.976562s.4371.976558.9765.976558h34.375c.5386 0 .9766.43793.9766.97657v44.14061c0 .5386-.438.9766-.9766.9766h-1.9531c-.5394 0-.9766.4371-.9766.9765s.4372.9766.9766.9766h1.9531c1.6155 0 2.9297-1.3142 2.9297-2.9297v-44.14061c0-1.61553-1.3142-2.92969-2.9297-2.92969z"/><path d="m41.2113 48.0469h-.0007c-.5394 0-.9762.4371-.9762.9765s.4375.9766.9769.9766.9766-.4372.9766-.9766-.4372-.9765-.9766-.9765z"/><path d="m8.78944 1.95312c.5394 0 .97657-.43716.97657-.976558s-.43717-.976562-.97657-.976562h-.00076c-.5394 0-.97618.437164-.97618.976562s.43755.976558.97694.976558z"/></g></svg>

<svg width="50" height="50" viewBox="0 0 50 50" fill="none" xmlns="http://www.w3.org/2000/svg">
<path d="M41.658 7.36542H35.0838C29.9664 7.36542 25.803 11.5288 25.803 16.6462V22.1947H20.6005C20.0615 22.1947 19.6239 22.6318 19.6239 23.1712V30.6847C19.6239 31.2241 20.0615 31.6612 20.6005 31.6612H25.803V48.0469H2.92969C2.39105 48.0469 1.95312 47.6089 1.95312 47.0703V2.92969C1.95312 2.39105 2.39105 1.95312 2.92969 1.95312H4.88281C5.42221 1.95312 5.85938 1.51596 5.85938 0.976562C5.85938 0.437164 5.42221 0 4.88281 0H2.92969C1.31416 0 0 1.31416 0 2.92969V47.0703C0 48.6858 1.31416 50 2.92969 50H26.7796C27.319 50 27.7561 49.5628 27.7561 49.0234V30.6847C27.7561 30.1453 27.319 29.7081 26.7796 29.7081H21.5775V24.1474H26.7796C27.319 24.1474 27.7561 23.7103 27.7561 23.1709V16.6462C27.7561 12.6057 31.0432 9.31816 35.0842 9.31816H40.6818V14.8785H35.0842C34.1259 14.8785 33.3164 15.6879 33.3164 16.6462V23.1709C33.3164 23.7103 33.7536 24.1474 34.293 24.1474H40.5449L39.8132 29.7081H34.293C33.754 29.7081 33.3164 30.1453 33.3164 30.6847V49.0234C33.3164 49.5628 33.754 50 34.293 50H37.3047C37.8441 50 38.2812 49.5628 38.2812 49.0234C38.2812 48.484 37.8441 48.0469 37.3047 48.0469H35.2695V31.6612H40.6696C41.1598 31.6612 41.5741 31.2977 41.6378 30.8121L42.6266 23.2983C42.6632 23.0198 42.5781 22.7386 42.3927 22.5273C42.2073 22.3156 41.9395 22.1947 41.6584 22.1947H35.2699V16.832H41.6584C42.1978 16.832 42.635 16.3948 42.635 15.8554V8.34198C42.6346 7.80258 42.1974 7.36542 41.658 7.36542Z" fill="#EE7D00"/>
<path d="M47.0703 0H12.6953C12.1559 0 11.7188 0.437164 11.7188 0.976562C11.7188 1.51596 12.1559 1.95312 12.6953 1.95312H47.0703C47.6089 1.95312 48.0469 2.39105 48.0469 2.92969V47.0703C48.0469 47.6089 47.6089 48.0469 47.0703 48.0469H45.1172C44.5778 48.0469 44.1406 48.484 44.1406 49.0234C44.1406 49.5628 44.5778 50 45.1172 50H47.0703C48.6858 50 50 48.6858 50 47.0703V2.92969C50 1.31416 48.6858 0 47.0703 0Z" fill="#EE7D00"/>
<path d="M41.2113 48.0469H41.2106C40.6712 48.0469 40.2344 48.484 40.2344 49.0234C40.2344 49.5628 40.6719 50 41.2113 50C41.7507 50 42.1879 49.5628 42.1879 49.0234C42.1879 48.484 41.7507 48.0469 41.2113 48.0469Z" fill="#EE7D00"/>
<path d="M8.78944 1.95312C9.32884 1.95312 9.76601 1.51596 9.76601 0.976562C9.76601 0.437164 9.32884 0 8.78944 0H8.78868C8.24928 0 7.8125 0.437164 7.8125 0.976562C7.8125 1.51596 8.25005 1.95312 8.78944 1.95312Z" fill="#EE7D00"/>
</svg>
